X: 5
T:Little House Round the Corner
M:6/8
L:1/8
Q:400
D:The Heart of Cape Bretton, Smithsonian Folkway, Hinnon Beaton, Fiddle
K:D
AFD A,DB |AFD EDB, | A,DF Adf |gfg eag | fdB AFD | EDB, DFA | dcd eag | [1fdd d3 | [2 fdd dfg :|
| (afa) (geg) | (fdf) (ecA) | dcd  ede | fdf efg | (afa) (geg) | (fdf) ecA |  dcd  AFD | 
[1EDC D2 F/G/ | [2EDC D3 :||
